X:1
T:What Means Noo A' The Young Men?
M:4/4
L:1/4
K:F
 f| d d D3/2 E/2| F3/2- G/2 A A| G3/2 F/2 D D| D3 D| F3/2 F/2 F A|\
 c2 A c| d3/2 c/2 A G| A3| D| F F F A| c2 A c| d3/2 c/2 A G| A3 c|\
 A3/2 A/2 D D| F3/2 G/2 A A| G3/2 F/2 D D| D3||

